image-filter-frames.svg

<svg fill="currentColor" viewBox="0 0 24 24"><path d="M18 8H6v10h12m2 2H4V6h4.5l3.54-3.5L15.5 6H20m0-2h-4l-4-4-4 4H4a2 2 0 0 0-2 2v14a2 2 0 0 0 2 2h16a2 2 0 0 0 2-2V6a2 2 0 0 0-2-2"/></svg>

<svg  viewBox="0 0 24 24" fill="currentColor"><path  d="M18,8H6V18H18M20,20H4V6H8.5L12.04,2.5L15.5,6H20M20,4H16L12,0L8,4H4A2,2 0 0,0 2,6V20A2,2 0 0,0 4,22H20A2,2 0 0,0 22,20V6A2,2 0 0,0 20,4Z"/></svg>
